X:1
T:THE WEARY GLEANER
M:2/4
Q:1/4=120
K:G
d6c2|B4c2A2|G4d2c2|B4c2A2|G4F2A2|E2E2F2A2|
G2G2F2F2|E4D4|D4F2A2|E2E2F2D2|G2G2A2A2|^c4d4|
d7/2||
